neru-light-classic/32x32/apps/tomahawk.svg

<svg xmlns="http://www.w3.org/2000/svg" height="32" width="32" version="1"><rect width="28.203" height="28.203" x="1.898" y="1.898" ry="5.575" fill="#e74c3c" fill-rule="evenodd"/><path d="M16 6a10 10 0 0 1 10 10 10 10 0 0 1-3 7.139V11.416c0-.785-.713-1.416-1.6-1.416h-.8c-.887 0-1.6.631-1.6 1.416v3.125l-3.646-2.045-4.288-2.404a.711.69 0 0 0-.339-.092.711.69 0 0 0-.727.689v9.62a.711.69 0 0 0 1.066.599l4.288-2.406L19 16.459v9.068A10 10 0 0 1 16 26 10 10 0 0 1 6 16 10 10 0 0 1 16 6z" fill="#fff"/></svg>

<?xml version="1.0" encoding="UTF-8" standalone="no"?>
<svg
   xmlns:dc="http://purl.org/dc/elements/1.1/"
   xmlns:cc="http://creativecommons.org/ns#"
   xmlns:rdf="http://www.w3.org/1999/02/22-rdf-syntax-ns#"
   xmlns:svg="http://www.w3.org/2000/svg"
   xmlns="http://www.w3.org/2000/svg"
   xmlns:sodipodi="http://sodipodi.sourceforge.net/DTD/sodipodi-0.dtd"
   xmlns:inkscape="http://www.inkscape.org/namespaces/inkscape"
   height="32"
   width="32"
   version="1"
   id="svg21"
   sodipodi:docname="tomahawk.svg"
   inkscape:version="0.92.1 r">
  <metadata
     id="metadata25">
    <rdf:RDF>
      <cc:Work
         rdf:about="">
        <dc:format>image/svg+xml</dc:format>
        <dc:type
           rdf:resource="http://purl.org/dc/dcmitype/StillImage" />
      </cc:Work>
    </rdf:RDF>
  </metadata>
  <sodipodi:namedview
     pagecolor="#ffffff"
     bordercolor="#666666"
     borderopacity="1"
     objecttolerance="10"
     gridtolerance="10"
     guidetolerance="10"
     inkscape:pageopacity="0"
     inkscape:pageshadow="2"
     inkscape:window-width="640"
     inkscape:window-height="480"
     id="namedview23"
     showgrid="false"
     inkscape:zoom="8.375"
     inkscape:cx="-6.6865672"
     inkscape:cy="16"
     inkscape:current-layer="svg21" />
  <defs
     id="defs5">
    <clipPath
       id="clipPath4186-8"
       clipPathUnits="userSpaceOnUse">
      <circle
         cx="286"
         cy="26"
         r="10"
         fill="url(#linearGradient4190)"
         id="circle2" />
    </clipPath>
  </defs>
  <rect
     style="opacity:1;fill:#e74c3c;fill-opacity:1;fill-rule:evenodd;stroke:none;stroke-width:1.03534329;stroke-linecap:round;stroke-linejoin:bevel;stroke-miterlimit:4;stroke-dasharray:none;stroke-dashoffset:0;stroke-opacity:1"
     id="rect4497-3-3"
     width="28.203388"
     height="28.203388"
     x="1.8983059"
     y="1.8983059"
     ry="5.575182" />
  <path
     d="m 16,6 a 10,10 0 0 1 10,10 10,10 0 0 1 -3,7.139 V 11.416 C 23,10.631 22.287,10 21.4,10 H 20.6 C 19.713,10 19,10.631 19,11.416 v 3.125 L 15.354,12.496 11.066,10.092 A 0.71125,0.6907 0 0 0 10.727,10 0.71125,0.6907 0 0 0 10,10.689 v 9.62 a 0.71125,0.6907 0 0 0 1.066,0.599 L 15.354,18.502 19,16.459 v 9.068 A 10,10 0 0 1 16,26 10,10 0 0 1 6,16 10,10 0 0 1 16,6 Z"
     id="path11"
     inkscape:connector-curvature="0"
     style="fill:#ffffff" />
</svg>
